X:60
T:Father Dollard's Hornpipe
R:hornpipe
D:Mary Bergin: Feadoga Stain 2.
Z:id:hn-hornpipe-60
M:C|
K:D
AF|D2 (3DDD DEFA|d2fe dcBA|FA~A2 dAfA|(3Bcd AF GEFE|
D2 (3DDD DEFA|d2fe dcBA|FA~A2 (3Bcd GE|F2D2 D2:|
|:de|fd~d2 d2de|fd~d2 bgaf|gece Acef|~g3b agfe|
Ad~d2 (3Bcd AF|Ad~d2 fdBd|Adfa geAc|e2dc d2:|

